X: 1002
T: Wake up Susan
B: jims roots
M:C|
L:1/8
R: hornpipe, reel
Q: 1/4=100
K:A
V:1 
((3efg) | "A"a2A2 AcBA | E2A2 AcBA | "Bm"F2B2 BcBA | "E7"GABc defg |
"A"a2A2 AcBA | E2A2 AcBA | "E7"GABc defg | "A"aece A2:|
|:cB | "A"A2{g}a2 A2{g}a2 | A2AB c2BA | "E7"E2{^d}e2 E2{d}e2 | E2Bc d2cB |
"A"A2{g}a2 A2{g}a2 | A2AB c2BA | "E7"E2Bc d2cB | "A"A2c2 A2:|
% abcbook-tune_id 6298c29719444d380e0ec728


% abcbook-boost 0
% abcbook-tablature 
% abcbook-transpose 
% abcbook-lastupdated 1654178456569
% abcbook-soundfonts 
% abcbook-repeats 1


